Simply white circles/scalable/actions/tag-new.svg

<svg xmlns="http://www.w3.org/2000/svg" width="24" height="24">
  <path fill="#e6e6e6" d="M11.998047 1.6308594c-.489518 0-.977872.1868563-1.351563.5605468L5.9101562 6.9277344c-.375381.3753811-.5600243.8651076-.5566406 1.3554687V20.457031c.0000021.486979.1846423.977612.5566406 1.34961.3753825.375383.8665334.562495 1.3535157.5625h9.4687501c.490366-.0034.981516-.190501 1.353516-.5625.375382-.375383.560546-.865628.560546-1.359375V8.2792969c-.000001-.4869831-.185165-.9761811-.560546-1.3515625l-4.734376-4.7363282c-.373691-.3736906-.863997-.5605469-1.353515-.5605468zm0 2.5078125c.366927 0 .734934.1411843 1.015625.421875.561381.5613812.561381 1.4659623 0 2.0273437-.561381.5613814-1.467916.5613813-2.029297 0-.561381-.5613814-.561381-1.4659623 0-2.0273437.280691-.2806907.646745-.4218751 1.013672-.421875zm-.955078 6.0351561h1.914062v2.869141h2.869141v1.914062h-2.869141v2.869141h-1.914062v-2.869141H8.1738281v-1.914062h2.8691409v-2.869141z"/>
</svg>

<?xml version="1.0" encoding="UTF-8" standalone="no"?>
<svg
   xmlns:dc="http://purl.org/dc/elements/1.1/"
   xmlns:cc="http://creativecommons.org/ns#"
   xmlns:rdf="http://www.w3.org/1999/02/22-rdf-syntax-ns#"
   xmlns:svg="http://www.w3.org/2000/svg"
   xmlns="http://www.w3.org/2000/svg"
   xmlns:sodipodi="http://sodipodi.sourceforge.net/DTD/sodipodi-0.dtd"
   xmlns:inkscape="http://www.inkscape.org/namespaces/inkscape"
   viewBox="0 0 24 24"
   version="1.1"
   id="svg4"
   sodipodi:docname="tag-new.svg"
   inkscape:version="0.92.3 (2405546, 2018-03-11)"
   width="24"
   height="24"
   style="fill:#000000">
  <metadata
     id="metadata10">
    <rdf:RDF>
      <cc:Work
         rdf:about="">
        <dc:format>image/svg+xml</dc:format>
        <dc:type
           rdf:resource="http://purl.org/dc/dcmitype/StillImage" />
        <dc:title></dc:title>
      </cc:Work>
    </rdf:RDF>
  </metadata>
  <defs
     id="defs8" />
  <sodipodi:namedview
     pagecolor="#ffffff"
     bordercolor="#666666"
     borderopacity="1"
     objecttolerance="10"
     gridtolerance="10"
     guidetolerance="10"
     inkscape:pageopacity="0"
     inkscape:pageshadow="2"
     inkscape:window-width="1366"
     inkscape:window-height="719"
     id="namedview6"
     showgrid="false"
     inkscape:zoom="15.909903"
     inkscape:cx="11.133645"
     inkscape:cy="11.748584"
     inkscape:window-x="0"
     inkscape:window-y="25"
     inkscape:window-maximized="1"
     inkscape:current-layer="svg4"
     showguides="true"
     inkscape:guide-bbox="true" />
  <path
     style="fill:#e6e6e6;stroke-width:0.47826096"
     d="M 11.998047 1.6308594 C 11.508529 1.6308594 11.020175 1.8177157 10.646484 2.1914062 L 5.9101562 6.9277344 C 5.5347752 7.3031155 5.3501319 7.792842 5.3535156 8.2832031 L 5.3535156 20.457031 C 5.3535177 20.94401 5.5381579 21.434643 5.9101562 21.806641 C 6.2855387 22.182024 6.7766896 22.369136 7.2636719 22.369141 L 16.732422 22.369141 C 17.222788 22.365741 17.713938 22.17864 18.085938 21.806641 C 18.46132 21.431258 18.646484 20.941013 18.646484 20.447266 L 18.646484 8.2792969 C 18.646483 7.7923138 18.461319 7.3031158 18.085938 6.9277344 L 13.351562 2.1914062 C 12.977871 1.8177156 12.487565 1.6308593 11.998047 1.6308594 z M 11.998047 4.1386719 C 12.364974 4.1386719 12.732981 4.2798562 13.013672 4.5605469 C 13.575053 5.1219281 13.575053 6.0265092 13.013672 6.5878906 C 12.452291 7.149272 11.545756 7.1492719 10.984375 6.5878906 C 10.422994 6.0265092 10.422994 5.1219283 10.984375 4.5605469 C 11.265066 4.2798562 11.63112 4.1386718 11.998047 4.1386719 z M 11.042969 10.173828 L 12.957031 10.173828 L 12.957031 13.042969 L 15.826172 13.042969 L 15.826172 14.957031 L 12.957031 14.957031 L 12.957031 17.826172 L 11.042969 17.826172 L 11.042969 14.957031 L 8.1738281 14.957031 L 8.1738281 13.042969 L 11.042969 13.042969 L 11.042969 10.173828 z "
     id="path4" />
</svg>
